X: 10
T: John Brennan's
Z: SundayRoast
S: https://thesession.org/tunes/404#setting53599
R: reel
M: 4/4
L: 1/8
K: Dmaj
|:D2FA dfed|cdBd AdFA|B3A2DFA|BAGF EGFE|
D2FA dfed|cdBd AdFA|B2GB ABdf|1f2 eg fdd2:|2f2 eg fdde||
f2df efdf|fedB AdFA|B3A2 DFA|BAGF Ecde|
f2 df efdf|fedB AdFA|B3A2 Bdf|f2 eg fdde|
f2df efdf|fedB AdFA|B3A2 DFA|BAGF EGFE|
D2FA dfed|cdBd AdFA|B3B ABdf|f2 eg fdd2||

%-------------------- TUNE SEPARATOR --------------------%

